X: 2097
T: Çeçen Kızı
C: Tanburî Cemil Bey
O: Turkey
F: http://compmusic.upf.edu/node/140
N: huseyni--oyunhavasi--nimsofyan--cecen_kizi--tanburi_cemil_bey
N: makam= huseyni
N: form= oyunhavasi
N: usul= nimsofyan = 2/4
M: 2/4
L: 1/16
K: C _2/4B ^3/4f  
Q: 1/4=96
%%MIDI tuningsystem comma53
ABcd e2e2  | e6z2  | edea e4  | edea e4  | \
w:   |   |   |   | 
edea edea  | 
w:   | 
edea e4  | d2{e}ce d2z2  | d2{e}ce d2z2  | \
w:   |   |   | 
d2g=f feed  | 
w:   | 
dccB BABG  | AGAB cdBG  | A6AG  | ABcd e2e2  | 
w:   |   |   |   | 
e6z2  | edea e4  | edea e4  | edea edea  | \
w:   |   |   |   | 
edea e4  | 
w:   | 
d2{e}ce d2z2  | d2{e}ce d2z2  | d2g=f feed  | \
w:   |   |   | 
dccB BABG  | 
w:   | 
AGAB cdBG  | A6z2  | GABc defg  | a8  | {g}a4 {g}a4  | 
w:   |   |   |   |   | 
{g}a4 {g}a4  | gaag g=ffe  | eddc cBBA  | \
w:   |   |   | 
AGAB cdBG  | 
w:   | 
A4 z4  | GABc defg  | a8  | {g}a4 {g}a4  | \
w:   |   |   |   | 
{g}a4 {g}a4  | gaag g=ffe  | 
w:   |   | 
eddc cBBA  | AGAB cdBG  | A4 z4  | B3/2c/d2 dec2  | 
w:   |   |   |   | 
B3/2c/d2 dec2  | B3/2c/d2 dec2  | B2c4B2  | \
w:   |   |   | 
B3/2c/d2 dec2  | 
w:   | 
B3/2c/d2 dec2  | B3/2c/d2 dec2  | B2c4B2  | \
w:   |   |   | 
ABcd e2e2  | 
w:   | 
eae4ed  | dGAB cded  | eae4ed  | c2d4dc  | 
w:   |   |   |   | 
B2c4cB  | AGAB cdBG  | A8  | |


